X: 37638
T: Snow On The Hills
R: reel
M: 4/4
K: Gmajor
|:G2dG BGdG|GABd cAFA|G2dG B^cde|fdcB cAFA|
G2dG BGdG|GABd cAFA|GABc defg|fdcB cAFA:|
|:dgga bgag|dggf d2cA|dgga bgag|fdcB cAFA|
dgga bgag|dggf d2fg|abag fgfe|defd cAFA:|

